design/assets/logos/discovery.svg

<?xml version="1.0" encoding="UTF-8"?>
<svg width="118px" height="34px" viewBox="0 0 118 34" version="1.1" xmlns="http://www.w3.org/2000/svg" xmlns:xlink="http://www.w3.org/1999/xlink">
    <!-- Generator: Sketch 52.6 (67491) - http://www.bohemiancoding.com/sketch -->
    <title>Artboard</title>
    <desc>Created with Sketch.</desc>
    <g id="Artboard" stroke="none" stroke-width="1" fill="none" fill-rule="evenodd">
        <path d="M42.5328154,26.7622144 C45.2252734,26.7622144 46.665493,25.0296604 46.665493,22.2953884 C46.665493,19.5403912 45.2252734,17.8082008 42.5328154,17.8082008 L40.4664766,17.8082008 L40.4664766,26.7622144 L42.5328154,26.7622144 Z M38.2961482,15.8880292 L42.6164434,15.8880292 C46.3942474,15.8880292 48.836185,18.392506 48.836185,22.2953884 C48.836185,26.1986344 46.3942474,28.7031112 42.6164434,28.7031112 L38.2961482,28.7031112 L38.2961482,15.8880292 Z M50.4809296,28.703184 L50.4809296,19.4361108 L52.5679936,19.4361108 L52.5679936,28.703184 L50.4809296,28.703184 Z M51.5248252,17.9122632 C50.8358032,17.9122632 50.2304092,17.3490468 50.2304092,16.6392996 C50.2304092,15.9295524 50.8358032,15.366336 51.5248252,15.366336 C52.2138472,15.366336 52.8188776,15.9295524 52.8188776,16.6392996 C52.8188776,17.3490468 52.2138472,17.9122632 51.5248252,17.9122632 Z M56.1312372,26.031633 C56.3610324,26.8039194 57.0496908,27.200607 57.9681444,27.200607 C58.9280484,27.200607 59.5541676,26.8246446 59.5541676,26.0941722 C59.5541676,25.5931314 59.2414716,25.3218858 58.4688216,25.1342682 L56.5482864,24.6750414 C55.2338724,24.3619818 54.252516,23.6522346 54.252516,22.1287506 C54.252516,20.4587358 55.7345496,19.2275862 57.759438,19.2275862 C59.9297664,19.2275862 61.1612796,20.2711182 61.4743392,21.9614946 L59.4287256,21.9614946 C59.2414716,21.3564642 58.6986168,20.9390514 57.7383492,20.9390514 C57.0078768,20.9390514 56.2566792,21.2728362 56.2566792,22.0033086 C56.2566792,22.4207214 56.5482864,22.691967 57.2165832,22.8588594 L59.1785688,23.3184498 C60.764592,23.6940486 61.5579672,24.5914134 61.5579672,25.9483686 C61.5579672,27.7849122 60.0341196,28.9120722 57.9470556,28.9120722 C55.7763636,28.9120722 54.2739684,27.8267262 54.0023592,26.031633 L56.1312372,26.031633 Z M66.8425296,19.2274407 C69.0550356,19.2274407 70.4534412,20.4796791 70.7246868,22.3373115 L68.6376228,22.3373115 C68.4707304,21.5024859 67.7817084,21.0432591 66.8636184,21.0432591 C65.4652128,21.0432591 64.6092984,22.3165863 64.6092984,24.0695019 C64.6092984,25.8227811 65.4652128,27.0961083 66.8636184,27.0961083 C67.7817084,27.0961083 68.4707304,26.6368815 68.6376228,25.8020559 L70.7246868,25.8020559 C70.4534412,27.6596883 69.0550356,28.9119267 66.8425296,28.9119267 C64.3376892,28.9119267 62.5218708,26.9499411 62.5218708,24.0695019 C62.5218708,21.1894263 64.3376892,19.2274407 66.8425296,19.2274407 Z M75.9865242,21.0223885 C74.4837654,21.0223885 73.669665,22.3164409 73.669665,24.0697201 C73.669665,25.8229993 74.4837654,27.1170517 75.9865242,27.1170517 C77.4896466,27.1170517 78.3033834,25.8229993 78.3033834,24.0697201 C78.3033834,22.3164409 77.4896466,21.0223885 75.9865242,21.0223885 Z M75.9865242,28.9121449 C73.3776942,28.9121449 71.582601,26.9083453 71.582601,24.0697201 C71.582601,21.2310949 73.3776942,19.2272953 75.9865242,19.2272953 C78.5953542,19.2272953 80.3904474,21.2310949 80.3904474,24.0697201 C80.3904474,26.9083453 78.5953542,28.9121449 75.9865242,28.9121449 Z M84.1206562,28.7032567 L80.6140978,19.4361835 L82.847329,19.4361835 L85.2478162,26.2195051 L87.6272146,19.4361835 L89.7979066,19.4361835 L86.270623,28.7032567 L84.1206562,28.7032567 Z M92.1063303,23.026079 L96.3015471,23.026079 C96.2808219,21.898919 95.6336139,20.980829 94.3606503,20.980829 C93.2124015,20.980829 92.3564871,21.6902126 92.1063303,23.026079 Z M98.2842579,25.8228902 C97.9711983,27.6597974 96.6146067,28.9120358 94.3813755,28.9120358 C91.7936343,28.9120358 89.9981775,26.9500502 89.9981775,24.0906998 C89.9981775,21.3146138 91.8139959,19.2275498 94.3395615,19.2275498 C96.9483915,19.2275498 98.3682495,21.0851822 98.3682495,23.7983654 L98.3682495,24.549563 L92.0437911,24.549563 C92.1063303,26.1777638 93.0455091,27.1587566 94.3813755,27.1587566 C95.3834571,27.1587566 96.1346547,26.7206186 96.3640863,25.8228902 L98.2842579,25.8228902 Z M105.086559,21.5441545 C104.794225,21.3354481 104.293548,21.2310949 103.855046,21.2310949 C102.999495,21.2310949 102.206484,21.7110469 101.997777,22.7131285 L101.997777,28.7030749 L99.9107134,28.7030749 L99.9107134,19.4360017 L101.997777,19.4360017 L101.997777,20.3962693 C102.352287,19.7076109 103.166751,19.2272953 104.063753,19.2272953 C104.522979,19.2272953 104.940756,19.3109233 105.086559,19.3941877 L105.086559,21.5441545 Z M108.192431,32.2515564 L109.507572,28.9537044 L105.917385,19.4361108 L108.150617,19.4361108 L110.572193,26.2612464 L112.951227,19.4361108 L115.101194,19.4361108 L110.216955,32.2515564 L108.192431,32.2515564 Z M113.98447,27.6039121 L114.901832,27.6039121 L114.901832,27.7689865 L114.536414,27.7689865 L114.536414,28.7041657 L114.349888,28.7041657 L114.349888,27.7689865 L113.98447,27.7689865 L113.98447,27.6039121 Z M115.568493,28.7043111 L115.265614,27.9392967 L115.265614,28.7043111 L115.088177,28.7043111 L115.088177,27.6040575 L115.301611,27.6040575 L115.636486,28.4497911 L115.968089,27.6040575 L116.176069,27.6040575 L116.176069,28.7043111 L115.996814,28.7043111 L115.996814,27.9392967 L115.700843,28.7043111 L115.568493,28.7043111 Z" id="product" fill="#FFAE1A"></path>
        <path d="M24.0806644,10.1786366 L30.1026076,16.2005798 L16.0512856,30.2522654 L1.99996364,16.2005798 L8.02190684,10.1786366 L10.0293424,12.1860722 L6.01447124,16.2005798 L16.0512856,26.2373942 L26.0881,16.2005798 L22.0732288,12.1860722 L24.0806644,10.1786366 Z M20.0661568,14.193326 L22.0735924,16.2007616 L16.0512856,22.2227048 L10.0293424,16.2007616 L12.036778,14.193326 L16.0512856,18.2081972 L20.0661568,14.193326 Z M14.0440318,8.1713828 L16.0514674,10.1788184 L18.058903,8.1713828 L16.0514674,6.1639472 L14.0440318,8.1713828 Z M16.0514674,2.1494396 L22.0734106,8.1713828 L16.0514674,14.193326 L10.0295242,8.1713828 L16.0514674,2.1494396 Z" id="bug" fill="#FFAE1A"></path>
        <path d="M41.2119293,8.72674544 C42.1707425,8.72674544 42.7430489,7.95409544 42.7430489,6.93783344 C42.7430489,5.90739104 42.1707425,5.13437744 41.2119293,5.13437744 C40.6821641,5.13437744 40.2240281,5.44925504 40.0095041,5.87866664 L40.0095041,7.98245624 C40.2240281,8.42604824 40.6963445,8.72674544 41.2119293,8.72674544 Z M41.6126165,3.58871384 C43.4731577,3.58871384 44.5323245,5.13437744 44.5323245,6.93783344 C44.5323245,8.74128944 43.4731577,10.272409 41.6126165,10.272409 C40.9254125,10.272409 40.2956573,9.94335104 40.0095041,9.59974904 L40.0095041,12.4910962 L38.2347725,12.4910962 L38.2347725,3.73197224 L40.0095041,3.73197224 L40.0095041,4.26137384 C40.2956573,3.91777184 40.9254125,3.58871384 41.6126165,3.58871384 Z M49.1837866,7.79643848 L49.1837866,3.73175408 L50.9730622,3.73175408 L50.9730622,10.1292961 L49.1983306,10.1292961 L49.1983306,9.54244568 C48.8405482,9.94349648 48.2249734,10.2725545 47.4806842,10.2725545 C46.0495546,10.2725545 45.2339998,9.32792168 45.2339998,7.91097248 L45.2339998,3.73175408 L47.0087314,3.73175408 L47.0087314,7.55319008 C47.0087314,8.22585008 47.3377894,8.68362248 48.0391738,8.68362248 C48.5831194,8.68362248 49.0550722,8.35456448 49.1837866,7.79643848 Z M55.1238834,8.72674544 C56.0826966,8.72674544 56.6553666,7.95409544 56.6553666,6.93783344 C56.6553666,5.90739104 56.0826966,5.13437744 55.1238834,5.13437744 C54.5941182,5.13437744 54.1363458,5.44925504 53.9214582,5.87866664 L53.9214582,7.98245624 C54.1363458,8.42604824 54.6086622,8.72674544 55.1238834,8.72674544 Z M55.5245706,3.58871384 C57.3851118,3.58871384 58.4442786,5.13437744 58.4442786,6.93783344 C58.4442786,8.74128944 57.3851118,10.272409 55.5245706,10.272409 C54.8377302,10.272409 54.2076114,9.94335104 53.9214582,9.59974904 L53.9214582,12.4910962 L52.1467266,12.4910962 L52.1467266,3.73197224 L53.9214582,3.73197224 L53.9214582,4.26137384 C54.2076114,3.91777184 54.8377302,3.58871384 55.5245706,3.58871384 Z M62.1941945,8.72674544 C63.1533713,8.72674544 63.7256777,7.95409544 63.7256777,6.93783344 C63.7256777,5.90739104 63.1533713,5.13437744 62.1941945,5.13437744 C61.6647929,5.13437744 61.2066569,5.44925504 60.9917693,5.87866664 L60.9917693,7.98245624 C61.2066569,8.42604824 61.6789733,8.72674544 62.1941945,8.72674544 Z M62.5952453,3.58871384 C64.4557865,3.58871384 65.5149533,5.13437744 65.5149533,6.93783344 C65.5149533,8.74128944 64.4557865,10.272409 62.5952453,10.272409 C61.9080413,10.272409 61.2782861,9.94335104 60.9917693,9.59974904 L60.9917693,12.4910962 L59.2170377,12.4910962 L59.2170377,3.73197224 L60.9917693,3.73197224 L60.9917693,4.26137384 C61.2782861,3.91777184 61.9080413,3.58871384 62.5952453,3.58871384 Z M67.7046616,6.23637632 L70.1811412,6.23637632 C70.1665972,5.56371632 69.76591,5.03431472 69.0358012,5.03431472 C68.3485972,5.03431472 67.862464,5.44918232 67.7046616,6.23637632 Z M69.0212572,3.58864112 C70.8963424,3.58864112 71.9267848,4.89105632 71.9267848,6.76614152 L71.9267848,7.30972352 L67.6617568,7.30972352 C67.7192056,8.26890032 68.2627876,8.84120672 69.0499816,8.84120672 C69.651376,8.84120672 70.094968,8.58377792 70.2382264,8.03983232 L71.88388,8.03983232 C71.654812,9.39933272 70.653094,10.2726999 69.0499816,10.2726999 C67.1894404,10.2726999 65.9441104,8.91283592 65.9441104,6.93776072 C65.9441104,5.00559032 67.2323452,3.58864112 69.0212572,3.58864112 Z M75.5909638,8.69813012 C75.8629366,8.69813012 76.1636338,8.61232052 76.3639774,8.48360612 L76.3639774,10.0579941 C76.1203654,10.1867085 75.6909538,10.2583377 75.219001,10.2583377 C73.9165858,10.2583377 73.1006674,9.61403852 73.1006674,8.19708932 L73.1006674,5.16284732 L72.1276738,5.16284732 L72.1276738,3.73171772 L73.1006674,3.73171772 L73.1006674,1.99989092 L74.860855,1.99989092 L74.860855,3.73171772 L76.2639874,3.73171772 L76.2639874,5.16284732 L74.860855,5.16284732 L74.860855,7.96838492 C74.860855,8.46906212 75.1328278,8.69813012 75.5909638,8.69813012 Z" id="puppet" fill="#090A0A"></path>
    </g>
</svg>

<svg width="118" height="34" xmlns="http://www.w3.org/2000/svg"><g fill="none" fill-rule="evenodd"><path d="M42.533 26.762c2.692 0 4.132-1.732 4.132-4.467 0-2.755-1.44-4.487-4.132-4.487h-2.067v8.954h2.067zm-4.237-10.874h4.32c3.778 0 6.22 2.505 6.22 6.407 0 3.904-2.442 6.408-6.22 6.408h-4.32V15.888zm12.185 12.815v-9.267h2.087v9.267h-2.087zm1.044-10.79c-.69 0-1.295-.564-1.295-1.274 0-.71.606-1.273 1.295-1.273s1.294.564 1.294 1.273c0 .71-.605 1.273-1.294 1.273zm4.606 8.119c.23.772.919 1.169 1.837 1.169.96 0 1.586-.376 1.586-1.107 0-.5-.313-.772-1.085-.96l-1.92-.459c-1.315-.313-2.296-1.023-2.296-2.546 0-1.67 1.482-2.901 3.506-2.901 2.17 0 3.402 1.043 3.715 2.733H59.43c-.188-.605-.73-1.022-1.69-1.022-.731 0-1.482.334-1.482 1.064 0 .418.291.689.96.856l1.962.46c1.586.375 2.379 1.272 2.379 2.63 0 1.836-1.524 2.963-3.61 2.963-2.172 0-3.674-1.085-3.946-2.88h2.13zm10.712-6.805c2.212 0 3.61 1.253 3.882 3.11h-2.087c-.167-.835-.856-1.294-1.774-1.294-1.399 0-2.255 1.274-2.255 3.027 0 1.753.856 3.026 2.255 3.026.918 0 1.607-.46 1.774-1.294h2.087c-.272 1.858-1.67 3.11-3.882 3.11-2.505 0-4.321-1.962-4.321-4.842s1.816-4.843 4.32-4.843zm9.144 1.795c-1.503 0-2.317 1.294-2.317 3.048 0 1.753.814 3.047 2.317 3.047 1.503 0 2.316-1.294 2.316-3.047 0-1.754-.813-3.048-2.316-3.048zm0 7.89c-2.61 0-4.404-2.004-4.404-4.842 0-2.839 1.795-4.843 4.404-4.843 2.608 0 4.403 2.004 4.403 4.843 0 2.838-1.795 4.842-4.403 4.842zm8.134-.209l-3.507-9.267h2.233l2.4 6.784 2.38-6.784h2.17l-3.526 9.267h-2.15zm7.985-5.677h4.196c-.021-1.127-.668-2.045-1.941-2.045-1.149 0-2.005.71-2.255 2.045zm6.178 2.797c-.313 1.837-1.67 3.089-3.903 3.089-2.587 0-4.383-1.962-4.383-4.821 0-2.776 1.816-4.863 4.342-4.863 2.608 0 4.028 1.857 4.028 4.57v.752h-6.324c.062 1.628 1.002 2.609 2.337 2.609 1.002 0 1.754-.438 1.983-1.336h1.92zm6.803-4.279c-.293-.209-.793-.313-1.232-.313-.856 0-1.649.48-1.857 1.482v5.99H99.91v-9.267h2.087v.96c.354-.688 1.169-1.169 2.066-1.169.459 0 .877.084 1.023.167v2.15zm3.105 10.708l1.316-3.298-3.59-9.518h2.233l2.421 6.825 2.38-6.825h2.15l-4.885 12.816h-2.025zm5.792-4.648h.918v.165h-.366v.935h-.186v-.935h-.366v-.165zm1.584 1.1l-.302-.765v.765h-.178v-1.1h.214l.334.846.332-.846h.208v1.1h-.18v-.765l-.295.765h-.133zM24.08 10.179l6.023 6.022L16.05 30.252 2 16.201l6.022-6.022 2.007 2.007-4.015 4.015 10.037 10.036 10.037-10.036-4.015-4.015 2.008-2.007zm-4.014 4.014l2.008 2.008-6.023 6.022L10.03 16.2l2.008-2.008 4.014 4.015 4.015-4.015zm-6.022-6.022l2.007 2.008L18.06 8.17 16.05 6.164 14.044 8.17zm2.007-6.022l6.022 6.022-6.022 6.022-6.021-6.022L16.05 2.15z" fill="#FFAE1A"/><path d="M41.212 8.727c.959 0 1.531-.773 1.531-1.79 0-1.03-.572-1.803-1.531-1.803-.53 0-.988.315-1.202.745v2.103c.214.444.686.745 1.202.745zm.4-5.138c1.861 0 2.92 1.545 2.92 3.349 0 1.803-1.059 3.334-2.92 3.334-.687 0-1.316-.329-1.602-.672v2.891h-1.775V3.732h1.775v.53c.286-.344.915-.673 1.603-.673zm7.572 4.207V3.732h1.79v6.397h-1.776v-.587c-.357.401-.973.73-1.717.73-1.431 0-2.247-.944-2.247-2.361v-4.18h1.775v3.822c0 .673.329 1.13 1.03 1.13.544 0 1.016-.328 1.145-.887zm5.94.93c.959 0 1.531-.772 1.531-1.788 0-1.03-.572-1.804-1.531-1.804-.53 0-.988.315-1.203.745v2.103c.215.444.688.745 1.203.745zm.4-5.137c1.861 0 2.92 1.545 2.92 3.349 0 1.803-1.059 3.334-2.92 3.334-.686 0-1.316-.329-1.603-.672v2.891h-1.774V3.732h1.774v.53c.287-.344.917-.673 1.604-.673zm6.67 5.138c.96 0 1.532-.773 1.532-1.79 0-1.03-.573-1.803-1.532-1.803-.53 0-.987.315-1.202.745v2.103c.215.444.687.745 1.202.745zm.401-5.138c1.86 0 2.92 1.545 2.92 3.349 0 1.803-1.06 3.334-2.92 3.334-.687 0-1.317-.329-1.603-.672v2.891h-1.775V3.732h1.775v.53c.286-.344.916-.673 1.603-.673zm5.11 2.647h2.476c-.014-.672-.415-1.202-1.145-1.202-.687 0-1.174.415-1.331 1.202zM69.02 3.59c1.875 0 2.906 1.302 2.906 3.177v.544h-4.265c.057.959.6 1.531 1.388 1.531.601 0 1.045-.257 1.188-.801h1.646c-.23 1.36-1.23 2.233-2.834 2.233-1.86 0-3.106-1.36-3.106-3.335 0-1.932 1.288-3.35 3.077-3.35zm6.57 5.11c.272 0 .573-.087.773-.215v1.574c-.244.129-.673.2-1.145.2-1.302 0-2.118-.644-2.118-2.06V5.162h-.973V3.732h.973V2h1.76v1.732h1.403v1.43h-1.403v2.806c0 .501.272.73.73.73z" fill="#090A0A"/></g></svg>
